X:1
T:Quand i'ay esté quinze heures
T:Clément Janequin
T:Source : Livre V de 25 chansons nouvelles à 4 parties---Paris---N.du Chemin---1550. Editor : André Vierendeels (03/03/18) Notes : Original clefs : G2, C2, C3, F3 Original note values have been halved Editorial accidentals above the stave  
T:Quand i'ay esté quinze heures
T:©
T:©
C:Clément Janequin
Z:©
%%score [ 1 2 [ 3 4 ] ]
L:1/8
Q:1/4=120
M:2/2
K:F
V:1 treble nm="Soprano" snm="S"
V:2 treble nm="Alto" snm="A"
V:3 treble-8 nm="Tenor 1" snm="T 1"
V:4 treble-8 nm="Tenor 2" snm="T 2"
V:1
 B2 BB A2 B2 | c3 c A2 A2 | B2 G2 GGGG | A2 c2 cB B2- | B2 A2 B4 :| d2 dd c3 c | cccc _e2 d2- | %7
w: Quand i'ay es- té quin-|ze'heu- res a- vec|vous, à vous bai- ser du|moins cent fois pour heu-|* * re,|lors m'est ad- vis, ou|main- te- nant ie meu- re,|
w: Di- sant a- dieu ces|plai- sirs s'en vont|tous, et en plus grand ap-|pe- tit ie de- meu-|* * re,|||
 d2 A2 A2 A2 | A2 A2 A2 B2 | G2 G2 F4 | d2 dd c3 c | cccc _e2 d2- | d2 A2 A2 A2 | A2 A2 AAAA | %14
w: _ qu'heu- re sans|vous me du- re|des iours cent,|com- me'a- vec vous m'a-|mour ie vous as- seu- re,|_ ce iour m'es-|toit plus qu'heu- re tost pas-|
w: |||||||
 G2 G2 F2 F2 | B2 B2 B2 B2 | A2 A2 G4- | G8 |] %18
w: sant, ce iour m'es-|toit plus qu'heu- re|tost pas- sant.|_|
w: ||||
V:2
 G2 GG F2 G2 | A3 G F2 E2 | G2 D2 EEEE | F2 G2 G2 F2 | F4 F4 :| B2 BB G3 G | GGGG c2 B2 | %7
w: Quand i'ay es- té quin-|ze'heu- res a- vec|vous, à vous bai- ser du|moins cent fois pour|heu- re,|lors m'est ad- vis, ou|main- te- nant ie meu- re,|
w: Di- sant a- dieu ces|plai- sirs s'en vont|tous, et en plus grand ap|pe- tit ie de-|meu- re,|||
 z2 F2 E2 E2 | D2 D2 C2 D2 | C2 C2 A,4 | B2 BB G3 G | GGGG c2 B2 | z2 F2 E2 E2 | D2 D2 C2 D2 | %14
w: qu'heu- re sans|vous me du- re|des iours cent,|com- me'a- vec vous m'a-|mour ie vous as- seu- re,|ce iour m'es-|toit plus qu'heu- re|
w: |||||||
 C2 C2 A,2 A2 | G2 D2 D2 D2 | C2 C2 C2 C2 | =B,8 |] %18
w: tost pas- sant, ce|iour m'es- toit plus|qu'heu- re tost pas-|sant.|
w: ||||
V:3
 d2 dd d2 d2 | f3 e d2 c2 | d2 B2 cccc |"^b" cc e4 d2 | c4 B4 :| f2 ff e3 e | eeee g4 | %7
w: Quand i'ay es- té quin-|ze'heu- res a- vec|vous, à vous bai- ser du|moins cent fois pour|heu- re,|lors m'est ad- vis, ou|main- te- nant ie meu-|
w: Di- sant a- dieu ces|plai- sirs s'en vont|tous, et en plus grand ap-|pe- tit ie de-|meu- re,|||
 f2 d2 c2 c2 | f2 f2 f2 f2 | e2 e2 d4 | f2 ff e3 e | eeee g4 | f2 d2 c2 c2 | f2 f2 f2 f2 | %14
w: re, qu'heu- re sans|vous me du- re|des iours cent,|com- me'a- vec vous m'a-|mour ie vous as- seu-|re, ce iour m'es-|toit plus qu'heu- re|
w: |||||||
 e2 e2 d2 d2 | B2 B2 f2 f2 | f2 f2 e2 e2 | d8 |] %18
w: tost pas- sant, ce|iour m'es- toit plus|qu'heu- re tost pas-|sant.|
w: ||||
V:4
 G2 GG D2 G2 | F3 C D2 A2 | G2 G2 CCCC |"^b" F2 C2 E2 B,2 | F4 B,4 :| B2 BB c4 | c2 cc c2 G2 | %7
w: Quand i'ay es- té quin-|ze'heu- res a- vec|vous, à vous bai- ser du|moins cent fois pour|heu- re,|lors m'est ad- vis,|ou mai- te- nant ie|
w: Di- sant a- dieu ces|plai- sirs s'en vont|tous, et en plus grand ap-|pe- tit ie de-|meu- re,|||
 d4 A2 A2 | DDDD F2 B,2 | C2 C2 D4 | B2 BB c2 c2 | cccc c2 G2 | d4 A2 A2 | DDDD F2 B,2 | %14
w: meu- re, qu'heu-|re sans vous me du- re|des iours cent,|com- me'a- vec vous m'a-|mour ie vous as- seu- re,|ce iour m'es-|toit plus qu'heu- re tost pas-|
w: |||||||
 C2 C2 D2 D2 | G2 G2 B2 B2 | F2 F2 C2 C2 | G8 |] %18
w: sant, ce iour m'es-|toit plus qu'heu- re|tost pa- sant, pas-|sant.|
w: ||||

